lib/assets/icons/svg/outlined-navigation-directiontop.svg

<svg xmlns="http://www.w3.org/2000/svg" viewBox="0 0 24 24"><path d="M12.002 20.159a.5.5 0 0 1-.5-.5V5.54l-6.67 6.679a.46.46 0 0 1-.35.13.46.46 0 0 1-.35-.14.5.5 0 0 1 0-.71l7.51-7.51a.5.5 0 0 1 .762.061l7.468 7.459a.51.51 0 0 1 0 .71.498.498 0 0 1-.39.13.473.473 0 0 1-.35-.14l-6.63-6.648v14.098a.51.51 0 0 1-.5.5z"/></svg>

<svg viewBox="0 0 24 24" xmlns="http://www.w3.org/2000/svg">
  <path  d="M 12.002 20.159 C 11.726 20.159 11.502 19.935 11.502 19.659 C 11.502 19.656 11.502 9.073 11.502 5.54 L 4.832 12.219 C 4.739 12.31 4.612 12.357 4.482 12.349 C 4.351 12.354 4.223 12.304 4.132 12.209 C 3.935 12.013 3.935 11.695 4.132 11.499 L 11.642 3.989 C 11.838 3.792 12.156 3.792 12.352 3.989 C 12.371 4.008 12.388 4.029 12.404 4.05 L 19.872 11.509 C 20.064 11.707 20.064 12.021 19.872 12.219 C 19.767 12.316 19.625 12.364 19.482 12.349 C 19.351 12.353 19.224 12.302 19.132 12.209 L 12.502 5.561 L 12.502 19.659 C 12.497 19.933 12.276 20.154 12.002 20.159 Z"/>
</svg>
